src/components/Icon/assets/apps-add.svg

<svg width="24" height="24" viewBox="0 0 24 24" fill="none" xmlns="http://www.w3.org/2000/svg">
<g id="apps-add">
<path id="Combined Shape" fill-rule="evenodd" clip-rule="evenodd" d="M9 9.00009H5V5.00009H9V9.00009ZM3.5 3.00009H10.5C10.776 3.00009 11 3.22409 11 3.50009V10.5001C11 10.7761 10.776 11.0001 10.5 11.0001H3.5C3.224 11.0001 3 10.7761 3 10.5001V3.50009C3 3.22409 3.224 3.00009 3.5 3.00009ZM19 9.00009H15V5.00009H19V9.00009ZM20.5 11.0001H13.5C13.224 11.0001 13 10.7761 13 10.5001V3.50009C13 3.22409 13.224 3.00009 13.5 3.00009H20.5C20.776 3.00009 21 3.22409 21 3.50009V10.5001C21 10.7761 20.776 11.0001 20.5 11.0001ZM5 19.0001H9V15.0001H5V19.0001ZM10.5 13.0001H3.5C3.224 13.0001 3 13.2241 3 13.5001V20.5001C3 20.7761 3.224 21.0001 3.5 21.0001H10.5C10.776 21.0001 11 20.7761 11 20.5001V13.5001C11 13.2241 10.776 13.0001 10.5 13.0001ZM18.0002 16.0001H21.0002V18.0001H18.0002V21.0001H16.0002V18.0001H13.0002V16.0001H16.0002V13.0001H18.0002V16.0001Z" fill="#242428"/>
</g>
</svg>

<svg xmlns="http://www.w3.org/2000/svg" width="24" height="24" fill="none" viewBox="0 0 24 24">
    <path fill="#65676A" fill-rule="evenodd" d="M9 9H5V5h4v4zM3.5 3h7c.276 0 .5.224.5.5v7c0 .276-.224.5-.5.5h-7c-.276 0-.5-.224-.5-.5v-7c0-.276.224-.5.5-.5zM19 9h-4V5h4v4zm1.5 2h-7c-.276 0-.5-.224-.5-.5v-7c0-.276.224-.5.5-.5h7c.276 0 .5.224.5.5v7c0 .276-.224.5-.5.5zM5 19h4v-4H5v4zm5.5-6h-7c-.276 0-.5.224-.5.5v7c0 .276.224.5.5.5h7c.276 0 .5-.224.5-.5v-7c0-.276-.224-.5-.5-.5zm7.5 3h3v2h-3v3h-2v-3h-3v-2h3v-3h2v3z" clip-rule="evenodd"/>
</svg>
